public/svgs/light/truck-fast.svg

<svg xmlns="http://www.w3.org/2000/svg" viewBox="0 0 640 512"><!-- Font Awesome Pro 6.0.0-alpha2 by @fontawesome - https://fontawesome.com License - https://fontawesome.com/license (Commercial License) --><path d="M272 192C280.836 192 288 184.836 288 176C288 167.162 280.836 160 272 160H48C39.164 160 32 167.162 32 176C32 184.836 39.164 192 48 192H272ZM624 384H608V247.672C608 228.594 601.156 210.109 588.75 195.625L517.734 112.766C508.594 102.109 495.312 96 481.281 96H416V64C416 28.654 387.346 0 352 0H128C92.654 0 64 28.654 64 64V96H16C7.164 96 0 103.162 0 112C0 120.836 7.164 128 16 128H240C248.836 128 256 120.836 256 112C256 103.162 248.836 96 240 96H96V64C96 46.326 110.326 32 128 32H352C369.674 32 384 46.326 384 64V288C384 296.836 391.164 304 400 304S416 296.836 416 288V256H576V384H570.4C557.18 346.773 521.705 320 480 320S402.82 346.773 389.6 384H250.121C236.896 346.799 201.738 320 160 320C135.301 320 113.012 329.59 96 344.914V256H240C248.836 256 256 248.836 256 240C256 231.162 248.836 224 240 224H16C7.164 224 0 231.162 0 240C0 248.836 7.164 256 16 256H64V416C64 469.02 106.98 512 160 512S256 469.02 256 416H384C384 468.938 427.062 512 480 512S576 468.938 576 416H624C632.844 416 640 408.844 640 400S632.844 384 624 384ZM416 224V128H481.281C485.969 128 490.391 130.031 493.422 133.578L564.453 216.438C566.463 218.789 568.18 221.34 569.688 224H416ZM160 480C124.711 480 96 451.289 96 416S124.711 352 160 352S224 380.711 224 416S195.289 480 160 480ZM480 480C444.703 480 416 451.297 416 416S444.703 352 480 352S544 380.703 544 416S515.297 480 480 480Z"/></svg>

<svg xmlns="http://www.w3.org/2000/svg" viewBox="0 0 640 512"><!--! Font Awesome Pro 6.5.1 by @fontawesome - https://fontawesome.com License - https://fontawesome.com/license (Commercial License) Copyright 2023 Fonticons, Inc. --><path d="M128 32H352c17.7 0 32 14.3 32 32V384H250.5c-13.2-37.3-48.7-64-90.5-64c-24.6 0-47 9.2-64 24.4V288H64v96 32c0 53 43 96 96 96s96-43 96-96H384c0 53 43 96 96 96s96-43 96-96h48c8.8 0 16-7.2 16-16s-7.2-16-16-16H608V235.8c0-11.5-4.1-22.5-11.6-31.2l-78.7-91.8C508.6 102.1 495.3 96 481.3 96H416V64c0-35.3-28.7-64-64-64H128C92.7 0 64 28.7 64 64V96H16c-8.8 0-16 7.2-16 16s7.2 16 16 16H240c8.8 0 16-7.2 16-16s-7.2-16-16-16H96V64c0-17.7 14.3-32 32-32zM570.9 224H416V128h65.3c4.7 0 9.1 2 12.1 5.6L570.9 224zM416 256H576V384h-5.5c-13.2-37.3-48.7-64-90.5-64c-24.6 0-47 9.2-64 24.4V256zM96 416a64 64 0 1 1 128 0A64 64 0 1 1 96 416zm384-64a64 64 0 1 1 0 128 64 64 0 1 1 0-128zM48 160c-8.8 0-16 7.2-16 16s7.2 16 16 16H272c8.8 0 16-7.2 16-16s-7.2-16-16-16H48zM16 224c-8.8 0-16 7.2-16 16s7.2 16 16 16H240c8.8 0 16-7.2 16-16s-7.2-16-16-16H16z"/></svg>
